dist/img/svg/linkedin.svg

<svg width="21" height="20" viewBox="0 0 21 20" fill="none" xmlns="http://www.w3.org/2000/svg">
<g clip-path="url(#clip0)">
<path d="M4.83128 6.65356H0.534424V19.5571H4.83128V6.65356Z" fill="white"/>
<path d="M18.9329 7.83226C18.0303 6.84698 16.8366 6.35425 15.3523 6.35425C14.8054 6.35425 14.3083 6.42152 13.8612 6.55615C13.4142 6.69069 13.0367 6.87945 12.7284 7.12253C12.4204 7.36562 12.175 7.59128 11.9928 7.79951C11.8196 7.99731 11.6502 8.22771 11.485 8.48835V6.65352H7.20093L7.21406 7.2786C7.22286 7.6954 7.2272 8.98004 7.2272 11.1327C7.2272 13.2856 7.21853 16.0936 7.20111 19.5572H11.485V12.3566C11.485 11.9139 11.5324 11.5625 11.6281 11.3018C11.8105 10.8589 12.0859 10.4881 12.455 10.1887C12.8241 9.88897 13.2819 9.73925 13.8289 9.73925C14.5752 9.73925 15.1244 9.99747 15.4761 10.514C15.8276 11.0304 16.0033 11.7444 16.0033 12.6559V19.5568H20.2872V12.1614C20.2869 10.2602 19.8358 8.81722 18.9329 7.83226Z" fill="white"/>
<path d="M2.70895 0.442627C1.98855 0.442627 1.40483 0.653283 0.95766 1.07418C0.510535 1.49518 0.287109 2.02667 0.287109 2.66918C0.287109 3.3027 0.504105 3.83237 0.938141 4.2576C1.37204 4.68288 1.94504 4.89564 2.65682 4.89564H2.68286C3.4121 4.89564 4.00029 4.68306 4.44728 4.2576C4.89427 3.83237 5.11341 3.30288 5.10479 2.66918C5.09612 2.02672 4.87461 1.49518 4.44071 1.07418C4.00686 0.6531 3.42939 0.442627 2.70895 0.442627Z" fill="white"/>
</g>
<defs>
<clipPath id="clip0">
<rect width="20" height="20" fill="white" transform="translate(0.287109)"/>
</clipPath>
</defs>
</svg>

<svg width="21" height="20" fill="none" xmlns="http://www.w3.org/2000/svg"><g clip-path="url(#clip0)" fill="#fff"><path d="M4.831 6.654H.534v12.903h4.297V6.654zm14.102 1.178c-.903-.985-2.096-1.478-3.58-1.478a5.16 5.16 0 00-1.492.202 3.384 3.384 0 00-1.133.567 5.564 5.564 0 00-.735.677 5.582 5.582 0 00-.508.688V6.654H7.201l.013.625c.009.416.013 1.701.013 3.854s-.008 4.96-.026 8.424h4.284v-7.2c0-.443.047-.794.143-1.055a2.76 2.76 0 01.827-1.113c.37-.3.827-.45 1.374-.45.746 0 1.295.258 1.647.775.352.516.527 1.23.527 2.142v6.9h4.284v-7.395c0-1.9-.451-3.344-1.354-4.329zM2.709.443c-.72 0-1.304.21-1.751.631-.447.421-.67.953-.67 1.595 0 .634.216 1.163.65 1.589.434.425 1.007.638 1.719.638h.026c.73 0 1.317-.213 1.764-.638.447-.426.666-.955.658-1.589-.009-.642-.23-1.174-.664-1.595C4.007.654 3.429.443 2.709.443z"/></g><defs><clipPath id="clip0"><path fill="#fff" transform="translate(.287)" d="M0 0h20v20H0z"/></clipPath></defs></svg>
